public/images/case-studies/speakinc/tech-icon3.svg

<svg width="85" height="18" viewBox="0 0 85 18" fill="none" xmlns="http://www.w3.org/2000/svg">
<g clip-path="url(#clip0)">
<path fill-rule="evenodd" clip-rule="evenodd" d="M1.12876 0.171684C1.81856 -0.116271 2.61254 0.0429435 3.14045 0.575082L14.0643 11.5864V1.89057C14.0643 0.86305 14.8908 0.0300837 15.9103 0.0300837C16.9297 0.0300837 17.7562 0.86305 17.7562 1.89057V16.0784C17.7562 16.8309 17.3064 17.5093 16.6166 17.7973C15.9268 18.0852 15.1328 17.926 14.6049 17.3939L3.68104 6.38253V16.0784C3.68104 17.1059 2.85459 17.9389 1.83512 17.9389C0.815643 17.9389 -0.0108032 17.1059 -0.0108032 16.0784V1.89057C-0.0108032 1.13805 0.438964 0.459639 1.12876 0.171684Z" fill="#009900"/>
<path fill-rule="evenodd" clip-rule="evenodd" d="M48.7643 0.170341C49.4541 -0.117614 50.248 0.0416007 50.776 0.57374L61.6998 11.5851V1.88922C61.6998 0.861707 62.5263 0.0287409 63.5458 0.0287409C64.5652 0.0287409 65.3917 0.861707 65.3917 1.88922V16.077C65.3917 16.8296 64.9419 17.508 64.2521 17.7959C63.5623 18.0839 62.7683 17.9247 62.2404 17.3925L51.3165 6.38119V16.077C51.3165 17.1046 50.4901 17.9375 49.4706 17.9375C48.4511 17.9375 47.6247 17.1046 47.6247 16.077V1.88922C47.6247 1.13671 48.0745 0.458296 48.7643 0.170341Z" fill="#009900"/>
<path d="M24.4586 0.0471191L23.951 1.00062L20.0284 8.18673L19.5208 9.09371L20.0284 10.0007L23.951 16.9543L24.4817 17.9077H25.5661H33.5959H34.7496L35.2572 16.8612L38.1876 10.9077L39.5028 8.20998H36.5263L29.0272 8.23324C28.052 8.21934 27.155 9.11071 27.155 10.0937C27.155 11.0767 28.052 11.9681 29.0272 11.9542L33.5497 11.9309L32.4422 14.1868H26.6275L23.7433 9.07046L26.6506 3.76808H32.8361L34.2782 6.75067H37.9931L35.6511 1.09364L35.1435 0.0471191H33.9898H25.5661H24.4586Z" fill="#009900"/>
<path d="M43.1587 0.0238064C42.1922 0.0360037 41.3238 0.933404 41.3359 1.90754V6.7556H45.0277V1.90754C45.04 0.917901 44.1406 0.011458 43.1587 0.0238064Z" fill="#009900"/>
<path fill-rule="evenodd" clip-rule="evenodd" d="M67.6951 0.606807C68.4147 -0.121032 69.5835 -0.123103 70.3056 0.602183L84.3972 14.7551C85.1194 15.4804 85.1214 16.6584 84.4018 17.3863C83.6822 18.1141 82.5134 18.1162 81.7913 17.3909L67.6997 3.23792C66.9775 2.51264 66.9755 1.33465 67.6951 0.606807Z" fill="#009900"/>
<path d="M43.1587 17.92C42.1922 17.9078 41.3238 17.0104 41.3359 16.0363V8.24878H45.0277V16.0363C45.04 17.0259 44.1406 17.9324 43.1587 17.92Z" fill="#009900"/>
<path fill-rule="evenodd" clip-rule="evenodd" d="M67.3652 17.4158C66.6431 16.6905 66.641 15.5125 67.3606 14.7846L81.4028 0.581857C82.1224 -0.145982 83.2912 -0.148051 84.0133 0.577235C84.7355 1.30252 84.7375 2.48051 84.0179 3.20835L69.9757 17.4111C69.2561 18.139 68.0874 18.141 67.3652 17.4158Z" fill="#009900"/>
</g>
<defs>
<clipPath id="clip0">
<rect width="85" height="18" fill="white"/>
</clipPath>
</defs>
</svg>

<svg xmlns="http://www.w3.org/2000/svg" width="85" height="18" fill="none" xmlns:v="https://vecta.io/nano"><g clip-path="url(#A)"><g fill-rule="evenodd" fill="#090"><path d="M1.129.172c.69-.288 1.484-.129 2.012.403l10.924 11.011V1.891c0-1.028.827-1.86 1.846-1.86s1.846.833 1.846 1.86v14.188a1.86 1.86 0 0 1-1.14 1.719c-.69.288-1.484.129-2.012-.403L3.681 6.383v9.696c0 1.027-.826 1.861-1.846 1.861s-1.846-.833-1.846-1.861V1.891A1.86 1.86 0 0 1 1.129.172zM48.764.17c.69-.288 1.484-.129 2.012.403L61.7 11.585V1.889c0-1.028.826-1.86 1.846-1.86s1.846.833 1.846 1.86v14.188a1.86 1.86 0 0 1-1.14 1.719c-.69.288-1.484.129-2.012-.403L51.317 6.381v9.696c0 1.028-.826 1.86-1.846 1.86s-1.846-.833-1.846-1.86V1.889A1.86 1.86 0 0 1 48.764.17z"/></g><path d="M24.459.047l-.508.954-3.923 7.186-.508.907.508.907 3.923 6.954.531.953h1.084 8.03 1.154l.508-1.046 2.93-5.953 1.315-2.698h-2.977l-7.499.023c-.975-.014-1.872.877-1.872 1.86s.897 1.874 1.872 1.861l4.523-.023-1.108 2.256h-5.815L23.743 9.07l2.907-5.302h6.186l1.442 2.983h3.715l-2.342-5.657-.508-1.047H33.99h-8.424-1.107zm18.7-.023c-.967.012-1.835.91-1.823 1.884v4.848h3.692V1.908c.012-.99-.887-1.896-1.869-1.884z" fill="#090"/><path fill-rule="evenodd" d="M67.695.607c.72-.728 1.888-.73 2.611-.005l14.092 14.153a1.87 1.87 0 0 1 .005 2.631c-.72.728-1.888.73-2.61.005L67.7 3.238a1.87 1.87 0 0 1-.005-2.631z" fill="#090"/><path d="M43.159 17.92c-.967-.012-1.835-.91-1.823-1.884V8.249h3.692v7.788c.012.99-.887 1.896-1.869 1.884z" fill="#090"/><path fill-rule="evenodd" d="M67.365 17.416a1.87 1.87 0 0 1-.005-2.631L81.403.582c.72-.728 1.888-.73 2.611-.005a1.87 1.87 0 0 1 .005 2.631L69.976 17.411c-.72.728-1.888.73-2.611.005z" fill="#090"/></g><defs><clipPath id="A"><path fill="#fff" d="M0 0h85v18H0z"/></clipPath></defs></svg>
